logos/tv.123tv.svg

<?xml version="1.0" encoding="UTF-8" standalone="no"?>
<!-- Created with Inkscape (http://www.inkscape.org/) -->

<svg
   xmlns:dc="http://purl.org/dc/elements/1.1/"
   xmlns:cc="http://creativecommons.org/ns#"
   xmlns:rdf="http://www.w3.org/1999/02/22-rdf-syntax-ns#"
   xmlns:svg="http://www.w3.org/2000/svg"
   xmlns="http://www.w3.org/2000/svg"
   xmlns:inkscape="http://www.inkscape.org/namespaces/inkscape"
   version="1.0"
   width="1133.8583"
   height="277.44095"
   id="svg3012">
  <metadata
     id="metadata18">
    <rdf:RDF>
      <cc:Work
         rdf:about="">
        <dc:format>image/svg+xml</dc:format>
        <dc:type
           rdf:resource="http://purl.org/dc/dcmitype/StillImage" />
      </cc:Work>
    </rdf:RDF>
  </metadata>
  <defs
     id="defs3014" />
  <g
     transform="translate(210.71284,111.7935)"
     id="layer1">
    <g
       transform="matrix(2.7019131,0,0,2.7019131,-190.47482,-138.79952)"
       id="g3000">
      <path
         d="m 122.37968,23.524841 c 24.52282,-0.528335 49.10051,-0.03577 73.64455,-0.244812 5.4037,-0.516586 10.65769,4.205857 10.21765,9.745392 -0.01,18.999329 0.0558,38.003372 -0.0318,57.001496 0.0881,5.290313 -5.06088,9.444641 -10.17012,9.019271 -23.70252,-0.114288 -47.40491,0.0397 -71.10652,-0.07268 -5.0723,0.428512 -9.85942,-3.793228 -9.93917,-8.897141 -0.11105,-19.005523 -0.029,-38.018158 -0.04,-57.025223 -0.19297,-4.437301 3.05294,-8.667785 7.4254,-9.526306 z"
         inkscape:connector-curvature="0"
         id="path20"
         style="fill:#fdbf00;fill-rule:nonzero;stroke:none" />
      <path
         d="m 230.32288,23.409958 c 1.84573,-0.410935 3.75793,-0.25824 5.63914,-0.290802 23.70964,0.06926 47.42232,-0.05046 71.13078,0.05742 4.93019,0.199341 8.93761,4.840271 8.70295,9.723602 -0.0112,19.050659 0.0625,38.105728 -0.036,57.155106 -0.0942,5.011261 -4.68444,9.212005 -9.68163,8.940078 -22.01651,0.04439 -44.0363,0.01399 -66.05345,0.0017 -3.74495,-0.103378 -7.68288,0.561234 -11.26015,-0.829849 -3.54797,-1.486389 -5.71156,-5.389404 -5.54935,-9.16774 0.0149,-18.687408 -0.001,-37.375793 0.008,-56.062927 -0.17175,-4.315353 2.87036,-8.513092 7.09986,-9.526596 z"
         inkscape:connector-curvature="0"
         id="path24"
         style="fill:#ba0f07;fill-rule:nonzero;stroke:none" />
      <rect
         width="9.7641315"
         height="9.7641315"
         x="209.63713"
         y="55.325825"
         id="rect2971"
         style="fill:#ba0f07;fill-opacity:1;fill-rule:nonzero;stroke:none;stroke-width:28.73999977;marker:none;visibility:visible;display:inline;overflow:visible;enable-background:accumulate" />
      <rect
         width="9.7641315"
         height="9.7641315"
         x="101.5378"
         y="55.325825"
         id="rect2969"
         style="fill:#ba0f07;fill-opacity:1;fill-rule:nonzero;stroke:none;stroke-width:28.73999977;marker:none;visibility:visible;display:inline;overflow:visible;enable-background:accumulate" />
      <path
         d="m 13.336258,23.404404 c 24.886993,-0.37381 49.808029,-0.03644 74.707992,-0.167313 3.845124,-0.213684 7.838242,2.009796 9.246659,5.67598 0.989273,2.220672 0.85527,4.703643 0.870804,7.077087 -0.09306,18.009659 0.07343,36.023621 -0.07877,54.030869 -0.110031,5.210968 -4.958145,9.442688 -10.13031,9.000702 -24.323746,-0.04465 -48.651261,0.05928 -72.973404,-0.04108 C 9.691132,99.124237 5.336868,94.210403 5.638611,89.027435 5.646271,70.346863 5.623795,51.664597 5.649475,32.984467 5.51741,28.486313 8.845825,24.153702 13.336258,23.404404 z"
         inkscape:connector-curvature="0"
         id="path14"
         style="fill:#196b26;fill-opacity:1;stroke:none" />
      <path
         d="m 62.65,32 c -9.870163,1.009735 -19.698078,2.529419 -29.575,3.5 -0.02254,2.540741 -0.02607,5.058481 -0.025,7.6 4.941697,0.0061 9.882938,0.01981 14.825,0.025 0.01462,15.247924 -0.0032,30.476877 0,45.725 4.919251,0.0031 9.855262,0.01265 14.775,0 -0.01378,-18.950409 -0.002,-37.899713 0,-56.85 z"
         inkscape:connector-curvature="0"
         id="path26"
         style="fill:#ffffff;stroke:none" />
      <path
         d="m 161.575,32.325 c -6.82843,-0.0061 -13.67463,0.03799 -20.5,0.15 -4.1414,0.461762 -9.60443,0.590884 -11.65,4.95 -1.80198,4.221893 -0.83102,8.967465 -1.075,13.425 4.57566,1.131607 9.22206,2.007206 13.85,2.9 -0.001,-3.856156 -10e-6,-7.694425 0,-11.55 13.24315,-0.0048 26.48134,0.001 39.725,-0.025 0.0185,2.475463 -0.0204,4.951733 -0.15,7.425 -15.69326,7.662979 -31.28979,15.520099 -46.95,23.25 -3.01228,1.529358 -6.14885,3.060324 -8.475,5.575 -2.42892,2.92836 -1.35813,6.992976 -1.575,10.475 20.07581,0.009 40.1489,0.01154 60.225,0 0.97494,-0.02101 1.97388,-0.01915 2.975,-0.075 3.00335,-0.167552 6.0438,-0.668744 8.55,-2.375 3.99068,-3.167312 2.03329,-8.771714 2.475,-13.125 -4.17179,-0.949829 -8.36967,-1.834582 -12.5,-2.95 -0.004,2.803574 -0.01,5.620206 0,8.425 -13.48233,0.02539 -26.96818,-0.0034 -40.45,0 13.89563,-6.654343 27.68062,-13.539242 41.525,-20.3 3.52559,-1.887177 7.95358,-4.034582 8.45,-8.525 0.37269,-4.683166 0.9431,-10.04423 -1.925,-14.1 -3.10092,-3.124404 -7.93953,-3.091754 -12.05,-3.45 -6.8268,-0.02959 -13.64657,-0.0939 -20.475,-0.1 z"
         inkscape:connector-curvature="0"
         id="path30"
         style="fill:#ffffff;stroke:none" />
      <path
         d="m 270.475,32.7 c -6.84428,0.0012 -13.70617,0.01947 -20.55,0.025 -3.91044,0.226501 -8.18133,0.235657 -11.55,2.5 -3.53042,2.996719 -2.81945,8.071933 -2.9,12.2 4.59363,0.659409 9.18239,1.420129 13.775,2.1 0.008,-2.366074 -0.005,-4.734827 0,-7.1 11.59205,0.02878 23.20762,-0.04464 34.8,0.025 2.14322,0.193817 5.41228,-0.11239 5.975,2.65 0.47384,2.589401 0.58043,5.330158 -0.05,7.9 -0.46756,2.187485 -3.12915,2.28793 -4.925,2.5 -7.46791,0.191025 -14.93086,0.0072 -22.4,0.075 -0.008,3.042343 -0.0105,6.08176 0,9.125 8.11563,0.0055 16.23348,-0.05026 24.35,0 2.02272,0.123032 4.8871,0.0086 5.625,2.4 0.82364,3.05986 0.79628,6.478116 0.025,9.55 -0.54375,1.788265 -2.34169,2.121644 -4.05,2.275 -0.56944,0.05112 -1.1289,0.09202 -1.625,0.15 -12.79601,0.05991 -25.60398,-0.02287 -38.4,0 -0.009,-2.668655 -0.0136,-5.332626 0,-8 -4.76115,0.797119 -9.49321,1.670993 -14.275,2.325 0.0951,4.496002 -0.9406,10.069936 3,13.325 3.70808,2.512952 8.41714,2.247744 12.7,2.4 10.99298,-0.02991 21.98154,0.03092 32.975,0 3.66449,-0.0103 7.33583,-0.03608 11,-0.075 2.41756,-0.05671 5.22314,-0.294728 7.65,-1.175 0.30336,-0.110032 0.58472,-0.218824 0.875,-0.35 2.03195,-0.918224 3.7099,-2.38552 4.525,-4.7 1.24443,-4.982758 1.15243,-10.342896 0.3,-15.375 -2.19438,-6.147095 -9.59339,-7.028412 -15.125,-8.075 5.12738,-0.259354 12.33817,-2.08157 12.775,-8.3 -0.003,-4.96289 1.16798,-10.677369 -1.9,-15 -3.15712,-3.109635 -7.95799,-3.02717 -12.075,-3.35 -6.84417,-0.01947 -13.68072,-0.02624 -20.525,-0.025 z"
         inkscape:connector-curvature="0"
         id="path34"
         style="fill:#ffffff;stroke:none" />
      <path
         d="m 327.91695,45.663727 c 5.00088,-1.518067 9.97947,-3.11084 14.96182,-4.69487 0.0626,4.609909 0.0227,9.220352 0.0355,13.830963 2.81464,0.0082 5.6311,0.0078 8.45136,0.0042 -0.007,3.453537 -0.006,6.907242 -0.003,10.361542 -2.81842,0.0031 -5.63333,0.0036 -8.44618,0.0078 0.20459,6.866333 -0.43767,13.801895 0.32705,20.623809 0.91733,3.630478 5.25277,3.32219 8.14771,2.814408 0.007,3.300338 0.1387,6.599624 0.37628,9.892715 -5.93607,1.056702 -12.70345,2.081433 -18.21291,-0.997986 -3.75985,-2.044983 -5.62471,-6.370117 -5.59921,-10.517532 -0.11665,-7.274124 -0.006,-14.551636 -0.039,-21.826813 -2.4292,0.007 -4.85641,0.0074 -7.27952,0.0065 -7.7e-4,-3.454621 -1.3e-4,-6.9086 -0.003,-10.362443 2.42366,-6.25e-4 4.85122,6.87e-4 7.28102,0.0083 -0.005,-3.050614 -0.005,-6.100708 0.002,-9.150574 z"
         inkscape:connector-curvature="0"
         id="path40"
         style="fill:#000000;fill-rule:nonzero;stroke:none" />
      <path
         d="m 353.68665,54.813156 c 5.23108,-0.01341 10.46343,0.0023 15.6976,-0.01581 2.50422,10.114594 5.0447,20.220245 7.55526,30.333862 2.34267,-10.128585 4.94712,-20.194427 7.31089,-30.31784 l 14.79544,0 c -4.39048,12.984569 -9.49015,29.637098 -14.00653,43.686187 -5.91385,-0.01088 -11.82621,0.03145 -17.73699,-0.03232 -4.51272,-14.559646 -9.01925,-29.121078 -13.61567,-43.654083 z"
         inkscape:connector-curvature="0"
         id="path44"
         style="fill:#000000;fill-rule:nonzero;stroke:none" />
    </g>
  </g>
</svg>

<?xml version="1.0" encoding="UTF-8" standalone="no"?>
<!-- Created with Inkscape (http://www.inkscape.org/) -->
<svg
   xmlns:svg="http://www.w3.org/2000/svg"
   xmlns="http://www.w3.org/2000/svg"
   version="1.0"
   width="1133.8583"
   height="277.44095"
   id="svg3012">
  <defs
     id="defs3014" />
  <g
     transform="translate(210.71284,111.7935)"
     id="layer1">
    <g
       transform="matrix(2.7019131,0,0,2.7019131,-190.47482,-138.79952)"
       id="g3000">
      <path
         d="M 122.37968,23.524841 C 146.9025,22.996506 171.48019,23.489075 196.02423,23.280029 C 201.42793,22.763443 206.68192,27.485886 206.24188,33.025421 C 206.23207,52.02475 206.29767,71.028793 206.2101,90.026917 C 206.2982,95.31723 201.14922,99.471558 196.03998,99.046188 C 172.33746,98.9319 148.63507,99.085892 124.93346,98.973511 C 119.86116,99.402023 115.07404,95.180283 114.99429,90.07637 C 114.88324,71.070847 114.96532,52.058212 114.95428,33.051147 C 114.76131,28.613846 118.00722,24.383362 122.37968,23.524841 z"
         id="path20"
         style="fill:#fdbf00;fill-rule:nonzero;stroke:none" />
      <path
         d="M 230.32288,23.409958 C 232.16861,22.999023 234.08081,23.151718 235.96202,23.119156 C 259.67166,23.188416 283.38434,23.068695 307.0928,23.176575 C 312.02299,23.375916 316.03041,28.016846 315.79575,32.900177 C 315.78451,51.950836 315.85826,71.005905 315.75977,90.055283 C 315.66556,95.066544 311.07533,99.267288 306.07814,98.995361 C 284.06163,99.039749 262.04184,99.009354 240.02469,98.99707 C 236.27974,98.893692 232.34181,99.558304 228.76454,98.167221 C 225.21657,96.680832 223.05298,92.777817 223.21519,88.999481 C 223.2301,70.312073 223.21394,51.623688 223.22302,32.936554 C 223.05127,28.621201 226.09338,24.423462 230.32288,23.409958 z"
         id="path24"
         style="fill:#ba0f07;fill-rule:nonzero;stroke:none" />
      <rect
         width="9.7641315"
         height="9.7641315"
         x="209.63713"
         y="55.325825"
         id="rect2971"
         style="fill:#ba0f07;fill-opacity:1;fill-rule:nonzero;stroke:none;stroke-width:28.73999977;stroke-linecap:butt;stroke-linejoin:miter;marker:none;marker-start:none;marker-mid:none;marker-end:none;stroke-miterlimit:3.86400008;stroke-dasharray:none;stroke-dashoffset:0;stroke-opacity:1;visibility:visible;display:inline;overflow:visible;enable-background:accumulate" />
      <rect
         width="9.7641315"
         height="9.7641315"
         x="101.5378"
         y="55.325825"
         id="rect2969"
         style="fill:#ba0f07;fill-opacity:1;fill-rule:nonzero;stroke:none;stroke-width:28.73999977;stroke-linecap:butt;stroke-linejoin:miter;marker:none;marker-start:none;marker-mid:none;marker-end:none;stroke-miterlimit:3.86400008;stroke-dasharray:none;stroke-dashoffset:0;stroke-opacity:1;visibility:visible;display:inline;overflow:visible;enable-background:accumulate" />
      <path
         d="M 13.336258,23.404404 C 38.223251,23.030594 63.144287,23.367966 88.04425,23.237091 C 91.889374,23.023407 95.882492,25.246887 97.290909,28.913071 C 98.280182,31.133743 98.146179,33.616714 98.161713,35.990158 C 98.068649,53.999817 98.235138,72.013779 98.082947,90.021027 C 97.972916,95.231995 93.124802,99.463715 87.952637,99.021729 C 63.628891,98.977081 39.301376,99.081009 14.979233,98.980652 C 9.691132,99.124237 5.336868,94.210403 5.638611,89.027435 C 5.646271,70.346863 5.623795,51.664597 5.649475,32.984467 C 5.51741,28.486313 8.845825,24.153702 13.336258,23.404404 z"
         id="path14"
         style="fill:#196b26;fill-opacity:1;stroke:none;stroke-width:0.1;stroke-linecap:butt;stroke-linejoin:miter;stroke-miterlimit:10" />
      <path
         d="M 62.65,32 C 52.779837,33.009735 42.951922,34.529419 33.075,35.5 C 33.052463,38.040741 33.048932,40.558481 33.05,43.1 C 37.991697,43.106073 42.932938,43.119813 47.875,43.125 C 47.889618,58.372924 47.871765,73.601877 47.875,88.85 C 52.794251,88.853096 57.730262,88.862648 62.65,88.85 C 62.636222,69.899591 62.648047,50.950287 62.65,32 z"
         id="path26"
         style="fill:#ffffff;stroke:none;stroke-width:0.1;stroke-linecap:butt;stroke-linejoin:miter;stroke-miterlimit:10" />
      <path
         d="M 161.575,32.325 C 154.74657,32.318896 147.90037,32.362993 141.075,32.475 C 136.9336,32.936762 131.47057,33.065884 129.425,37.425 C 127.62302,41.646893 128.59398,46.392465 128.35,50.85 C 132.92566,51.981607 137.57206,52.857206 142.2,53.75 C 142.19863,49.893844 142.19999,46.055575 142.2,42.2 C 155.44315,42.195163 168.68134,42.201046 181.925,42.175 C 181.94348,44.650463 181.90464,47.126733 181.775,49.6 C 166.08174,57.262979 150.48521,65.120099 134.825,72.85 C 131.81272,74.379358 128.67615,75.910324 126.35,78.425 C 123.92108,81.35336 124.99187,85.417976 124.775,88.9 C 144.85081,88.909032 164.9239,88.911536 185,88.9 C 185.97494,88.878992 186.97388,88.880848 187.975,88.825 C 190.97835,88.657448 194.0188,88.156256 196.525,86.45 C 200.51568,83.282688 198.55829,77.678286 199,73.325 C 194.82821,72.375171 190.63033,71.490418 186.5,70.375 C 186.4959,73.178574 186.49002,75.995206 186.5,78.8 C 173.01767,78.825391 159.53182,78.796564 146.05,78.8 C 159.94563,72.145657 173.73062,65.260758 187.575,58.5 C 191.10059,56.612823 195.52858,54.465418 196.025,49.975 C 196.39769,45.291834 196.9681,39.93077 194.1,35.875 C 190.99908,32.750596 186.16047,32.783246 182.05,32.425 C 175.2232,32.395406 168.40343,32.331104 161.575,32.325 z"
         id="path30"
         style="fill:#ffffff;stroke:none;stroke-width:0.1;stroke-linecap:butt;stroke-linejoin:miter;stroke-miterlimit:10" />
      <path
         d="M 270.475,32.7 C 263.63072,32.701238 256.76883,32.719469 249.925,32.725 C 246.01456,32.951501 241.74367,32.960657 238.375,35.225 C 234.84458,38.221719 235.55555,43.296933 235.475,47.425 C 240.06863,48.084409 244.65739,48.845129 249.25,49.525 C 249.25786,47.158926 249.24489,44.790173 249.25,42.425 C 260.84205,42.453778 272.45762,42.380359 284.05,42.45 C 286.19322,42.643817 289.46228,42.33761 290.025,45.1 C 290.49884,47.689401 290.60543,50.430158 289.975,53 C 289.50744,55.187485 286.84585,55.28793 285.05,55.5 C 277.58209,55.691025 270.11914,55.507162 262.65,55.575 C 262.64184,58.617343 262.63946,61.65676 262.65,64.7 C 270.76563,64.705478 278.88348,64.649741 287,64.7 C 289.02272,64.823032 291.8871,64.708551 292.625,67.1 C 293.44864,70.15986 293.42128,73.578116 292.65,76.65 C 292.10625,78.438265 290.30831,78.771644 288.6,78.925 C 288.03056,78.976118 287.4711,79.017017 286.975,79.075 C 274.17899,79.134906 261.37102,79.05213 248.575,79.075 C 248.56579,76.406345 248.56139,73.742374 248.575,71.075 C 243.81385,71.872119 239.08179,72.745993 234.3,73.4 C 234.39513,77.896002 233.3594,83.469936 237.3,86.725 C 241.00808,89.237952 245.71714,88.972744 250,89.125 C 260.99298,89.095088 271.98154,89.15592 282.975,89.125 C 286.63949,89.114696 290.31083,89.08892 293.975,89.05 C 296.39256,88.993288 299.19814,88.755272 301.625,87.875 C 301.92836,87.764968 302.20972,87.656176 302.5,87.525 C 304.53195,86.606776 306.2099,85.13948 307.025,82.825 C 308.26943,77.842242 308.17743,72.482104 307.325,67.45 C 305.13062,61.302905 297.73161,60.421588 292.2,59.375 C 297.32738,59.115646 304.53817,57.29343 304.975,51.075 C 304.97189,46.11211 306.14298,40.397631 303.075,36.075 C 299.91788,32.965365 295.11701,33.04783 291,32.725 C 284.15583,32.70553 277.31928,32.698762 270.475,32.7 z"
         id="path34"
         style="fill:#ffffff;stroke:none;stroke-width:0.1;stroke-linecap:butt;stroke-linejoin:miter;stroke-miterlimit:10" />
      <path
         d="M 327.91695,45.663727 C 332.91783,44.14566 337.89642,42.552887 342.87877,40.968857 C 342.94136,45.578766 342.90149,50.189209 342.91429,54.79982 C 345.72893,54.808029 348.54539,54.807602 351.36565,54.804001 C 351.35912,58.257538 351.36009,61.711243 351.36258,65.165543 C 348.54416,65.168671 345.72925,65.169128 342.9164,65.173325 C 343.12099,72.039658 342.47873,78.97522 343.24345,85.797134 C 344.16078,89.427612 348.49622,89.119324 351.39116,88.611542 C 351.39792,91.91188 351.52986,95.211166 351.76744,98.504257 C 345.83137,99.560959 339.06399,100.58569 333.55453,97.506271 C 329.79468,95.461288 327.92982,91.136154 327.95532,86.988739 C 327.83867,79.714615 327.94977,72.437103 327.91632,65.161926 C 325.48712,65.168945 323.05991,65.169281 320.6368,65.168427 C 320.63603,61.713806 320.63667,58.259827 320.63396,54.805984 C 323.05762,54.805359 325.48518,54.806671 327.91498,54.814301 C 327.9095,51.763687 327.91016,48.713593 327.91695,45.663727 z"
         id="path40"
         style="fill:#000000;fill-rule:nonzero;stroke:none" />
      <path
         d="M 353.68665,54.813156 C 358.91773,54.799744 364.15008,54.81543 369.38425,54.797348 C 371.88847,64.911942 374.42895,75.017593 376.93951,85.13121 C 379.28218,75.002625 381.88663,64.936783 384.2504,54.81337 L 399.04584,54.81337 C 394.65536,67.797939 389.55569,84.450468 385.03931,98.499557 C 379.12546,98.488678 373.2131,98.531006 367.30232,98.467239 C 362.7896,83.907593 358.28307,69.346161 353.68665,54.813156 z"
         id="path44"
         style="fill:#000000;fill-rule:nonzero;stroke:none" />
    </g>
  </g>
</svg>
